web/packages/design/src/ResourceIcon/assets/sendgrid.svg

<svg width="72" height="72" viewBox="0 0 72 72" fill="none" xmlns="http://www.w3.org/2000/svg">
<g clip-path="url(#clip0_16966_11984)">
<path d="M44.8167 48.3401C46.8849 48.3401 48.554 50.0094 48.554 52.0775V68.2633C48.554 70.3317 46.8849 72.0009 44.8167 72.0009H3.73717C1.66907 72.0009 0 70.3317 0 68.2633V27.1758C0 25.1077 1.66907 23.4385 3.73717 23.4385H19.9218C21.9899 23.4385 23.659 25.1077 23.659 27.1758V45.8532C23.659 47.2208 24.7783 48.3451 26.1504 48.3451H44.8266L44.8167 48.3401Z" fill="#51A9E3"/>
<path d="M27.1735 23.6616H45.8496C47.2171 23.6616 48.3412 24.781 48.3412 26.1534V44.8308C48.3412 46.8989 50.0103 48.5682 52.0782 48.5682H68.263C70.3309 48.5682 72 46.8989 72 44.8308V3.7384C72 1.67015 70.3309 0.000976562 68.263 0.000976562H27.1735C25.1055 0.000976562 23.4364 1.67015 23.4364 3.7384V19.9243C23.4364 21.9926 25.1055 23.6616 27.1735 23.6616Z" fill="#51A9E3"/>
</g>
<defs>
<clipPath id="clip0_16966_11984">
<rect width="72" height="72" fill="white" transform="translate(0 0.000976562)"/>
</clipPath>
</defs>
</svg>

<svg xmlns="http://www.w3.org/2000/svg" width="72" height="72" fill="none" viewBox="0 0 72 72"><g fill="#51a9e3" clip-path="url(#clip0_16966_11984)"><path d="M44.817 48.34a3.73 3.73 0 0 1 3.737 3.737v16.186a3.73 3.73 0 0 1-3.737 3.738H3.737A3.73 3.73 0 0 1 0 68.263V27.176a3.73 3.73 0 0 1 3.737-3.737h16.185a3.73 3.73 0 0 1 3.737 3.737v18.677a2.5 2.5 0 0 0 2.491 2.492h18.677zM27.174 23.662H45.85a2.5 2.5 0 0 1 2.491 2.491v18.678a3.73 3.73 0 0 0 3.737 3.737h16.185A3.73 3.73 0 0 0 72 44.831V3.738A3.73 3.73 0 0 0 68.263.001h-41.09a3.73 3.73 0 0 0-3.737 3.737v16.186a3.73 3.73 0 0 0 3.738 3.738"/></g><defs><clipPath id="clip0_16966_11984"><path fill="#fff" d="M0 .001h72v72H0z"/></clipPath></defs></svg>
